src/icons/android-share-alt.svg

<svg xmlns="http://www.w3.org/2000/svg" width="512" height="512" viewBox="0 0 512 512">
    <path d="M362.5 323.2c-13.4 0-25.9 4.4-34.8 13.3l-127.4-73.7c.9-4.4 1.8-8 1.8-12.4s-.9-8-1.8-12.4L326 165.1c9.8 8.9 22.3 14.2 36.5 14.2 29.4 0 53.5-24 53.5-53.3 0-29.2-24.1-53.2-53.5-53.2s-53.5 24-53.5 53.3c0 4.4.9 8 1.8 12.4l-125.7 72.8c-9.8-8.9-22.3-14.2-36.5-14.2-29.4 0-52.6 24-52.6 53.3 0 29.3 24.1 53.3 53.5 53.3 14.3 0 26.7-5.3 36.5-14.2l126.6 73.7c-.9 3.5-1.8 7.1-1.8 11.5 0 28.4 23.2 51.5 51.7 51.5 28.5 0 51.7-23.1 51.7-51.5 0-28.5-23.2-51.5-51.7-51.5z"/>
</svg>

<?xml version="1.0" encoding="UTF-8"?>
<svg width="512px" height="512px" viewBox="0 0 512 512" version="1.1" xmlns="http://www.w3.org/2000/svg" xmlns:xlink="http://www.w3.org/1999/xlink">
    <!-- Generator: Sketch 62 (91390) - https://sketch.com -->
    <title>android-share-alt</title>
    <desc>Created with Sketch.</desc>
    <g id="android-share-alt" stroke="none" stroke-width="1" fill="none" fill-rule="evenodd">
        <path d="M362.5,323.2 C349.1,323.2 336.6,327.6 327.7,336.5 L200.3,262.8 C201.2,258.4 202.1,254.8 202.1,250.4 C202.1,246 201.2,242.4 200.3,238 L326,165.1 C335.8,174 348.3,179.3 362.5,179.3 C391.9,179.3 416,155.3 416,126 C416,96.8 391.9,72.8 362.5,72.8 C333.1,72.8 309,96.8 309,126.1 C309,130.5 309.9,134.1 310.8,138.5 L185.1,211.3 C175.3,202.4 162.8,197.1 148.6,197.1 C119.2,197.1 96,221.1 96,250.4 C96,279.7 120.1,303.7 149.5,303.7 C163.8,303.7 176.2,298.4 186,289.5 L312.6,363.2 C311.7,366.7 310.8,370.3 310.8,374.7 C310.8,403.1 334,426.2 362.5,426.2 C391,426.2 414.2,403.1 414.2,374.7 C414.2,346.2 391,323.2 362.5,323.2 Z" id="Path" fill="#000000" fill-rule="nonzero"></path>
    </g>
</svg>
